.local/share/icons/Gruvbox-Plus-Dark/panel/24/electron-mail-tray.svg

<svg xmlns="http://www.w3.org/2000/svg" width="24" height="24" version="1.1">
 <defs>
  <style id="current-color-scheme" type="text/css">
   .ColorScheme-Text { color:#ebdbb2; } .ColorScheme-Highlight { color:#458588; }
  </style>
 </defs>
 <path style="fill:currentColor" class="ColorScheme-Text" d="M 12,3.9999998 C 8.686292,3.9999998 6,6.6862908 6,10 v 1 H 5.714844 c -0.30286,0 -0.583665,0.08222 -0.830078,0.216797 l 5.347656,5.263672 c 0.875466,0.861786 1.580307,0.812485 2.193359,0.611328 0.613054,-0.201159 1.039063,-0.611328 1.039063,-0.611328 l 5.447265,-5.361328 C 18.717545,11.044001 18.507431,11 18.285156,11 H 18 V 10 C 18,6.6862908 15.313709,3.9999998 12,3.9999998 Z m 0,2 c 2.23283,0 4,1.767171 4,4.0000002 V 10.611328 11 H 8 V 10.677734 10 C 8,7.7671708 9.767173,5.9999998 12,5.9999998 Z m 7.775391,5.8632812 -4.445313,4.375 3.664063,3.607422 C 19.58711,19.580747 20,18.997459 20,18.3125 v -5.625 c 0,-0.301643 -0.08488,-0.579682 -0.224609,-0.824219 z M 4.123047,12.060547 C 4.044347,12.254606 4,12.465146 4,12.6875 v 5.625 c 0,0.655046 0.380231,1.214253 0.931641,1.494141 l 3.53125,-3.476563 z m 10.398437,4.972656 -0.248046,0.244141 c 0,0 -0.584153,0.584833 -1.486329,0.880859 -0.902176,0.296026 -2.216489,0.246092 -3.361328,-0.880859 L 9.269531,17.126953 6.349609,20 h 11.185547 z"/>
</svg>

<svg width="24" height="24" version="1.1" xmlns="http://www.w3.org/2000/svg">
  <defs>
    <style id="current-color-scheme" type="text/css">.ColorScheme-Text { color:#ebdbb2; } .ColorScheme-Highlight { color:#458588; } .ColorScheme-NeutralText { color:#fe8019; } .ColorScheme-PositiveText { color:#689d6a; } .ColorScheme-NegativeText { color:#fb4934; }</style>
  </defs>
  <path class="ColorScheme-Text" d="m12 4c-3.314 0-6 2.686-6 6v1h-0.2852c-0.3029 0-0.5837 0.08222-0.8301 0.2168l5.348 5.264c0.8755 0.8618 1.58 0.8125 2.193 0.6113 0.6131-0.2012 1.039-0.6113 1.039-0.6113l5.447-5.361c-0.1946-0.07514-0.4047-0.1191-0.627-0.1191h-0.2852v-1c0-3.314-2.686-6-6-6zm0 2c2.233 0 4 1.767 4 4v1h-8v-1c0-2.233 1.767-4 4-4zm7.775 5.863-4.445 4.375 3.664 3.607c0.593-0.265 1.006-0.8482 1.006-1.533v-5.625c0-0.3016-0.08488-0.5797-0.2246-0.8242zm-15.65 0.1973c-0.0787 0.1941-0.123 0.4046-0.123 0.627v5.625c0 0.655 0.3802 1.214 0.9316 1.494l3.531-3.477zm10.4 4.973-0.248 0.2441s-0.5842 0.5848-1.486 0.8809-2.216 0.2461-3.361-0.8809l-0.1562-0.1504-2.92 2.873h11.19z" fill="currentColor"/>
</svg>
